icons/linear-ele-food-lolipop.svg

<svg xmlns="http://www.w3.org/2000/svg" width="32px" height="32px" viewBox="0 0 32 32" version="1.1">
    <title>linear-ele-food-lolipop</title>
    <g id="linear-ele-food-lolipop" stroke-width="1" fill-rule="evenodd">
        <path d="M26.3137085,5.6862915 C30.2189514,9.59153442 30.2189514,15.9231842 26.3137085,19.8284271 C23.147862,22.9942737 18.387432,23.593677 14.6177669,21.626637 L7.92893219,28.3137085 C6.75735931,29.4852814 4.85786438,29.4852814 3.6862915,28.3137085 C2.51471863,27.1421356 2.51471863,25.2426407 3.6862915,24.0710678 L10.373363,17.3822331 C8.40632305,13.612568 9.00572634,8.85213803 12.1715729,5.6862915 C16.0768158,1.78104858 22.4084656,1.78104858 26.3137085,5.6862915 Z M11.4991154,19.0860842 L5.10050506,25.4852814 C4.70998077,25.8758057 4.70998077,26.5089706 5.10050506,26.8994949 C5.49102936,27.2900192 6.12419433,27.2900192 6.51471863,26.8994949 L12.9139158,20.5008846 C12.6581386,20.2913281 12.4103214,20.0671756 12.1715729,19.8284271 C11.9328244,19.5896786 11.7086719,19.3418614 11.4991154,19.0860842 Z M14.8016886,6.10134653 L15.0086781,6.02616774 C17.5595167,5.14029033 20.4932517,5.67181678 22.5846146,7.62074708 L22.7781746,7.80761184 C25.1213203,10.1507576 25.1213203,13.9497475 22.7781746,16.2928932 C21.0208153,18.0502525 18.1715729,18.0502525 16.4142136,16.2928932 C14.8521164,14.7307961 14.8521164,12.1981361 16.4142136,10.636039 C16.8047379,10.2455147 17.4379028,10.2455147 17.8284271,10.636039 C18.2189514,11.0265633 18.2189514,11.6597282 17.8284271,12.0502525 C17.0884864,12.7901933 17.0495421,13.9656775 17.7115944,14.7514649 L17.8284271,14.8786797 C18.8047379,15.8549904 20.3876503,15.8549904 21.363961,14.8786797 C22.9260582,13.3165825 22.9260582,10.7839226 21.363961,9.22182541 C19.2160774,7.0739418 15.73367,7.0739418 13.5857864,9.22182541 C11.1115249,11.696087 11.0489995,15.6688093 13.3982104,18.218804 C13.458767,18.2850572 13.5216177,18.3500448 13.5857864,18.4142136 C16.7099808,21.5384079 21.7753006,21.5384079 24.8994949,18.4142136 C28.0236893,15.2900192 28.0236893,10.2246994 24.8994949,7.10050506 C22.15434,4.3553501 17.9104969,4.02229726 14.8016886,6.10134653 Z" id="&#24418;&#29366;" fill-rule="nonzero" />
    </g>
</svg>

<svg xmlns="http://www.w3.org/2000/svg" viewBox="0 0 32 32"><path fill="currentColor" d="M26.314 5.686c3.905 3.906 3.905 10.237 0 14.142-3.166 3.166-7.927 3.766-11.696 1.799l-6.69 6.687a3 3 0 1 1-4.242-4.243l6.687-6.689c-1.967-3.77-1.367-8.53 1.799-11.696 3.905-3.905 10.236-3.905 14.142 0m-14.815 13.4-6.398 6.4a1 1 0 1 0 1.414 1.413l6.399-6.398a10.12 10.12 0 0 1-1.415-1.415m3.303-12.985.207-.075a7.501 7.501 0 0 1 7.576 1.595l.193.187a6 6 0 0 1 0 8.485 4.5 4.5 0 0 1-6.364 0 4 4 0 0 1 0-5.657 1 1 0 1 1 1.414 1.414 2 2 0 0 0-.116 2.701l.116.128a2.5 2.5 0 0 0 3.536 0 4 4 0 0 0 0-5.657 5.5 5.5 0 0 0-7.778 0 6.5 6.5 0 0 0 0 9.192 8 8 0 1 0 1.216-12.313"/></svg>
